svgs/solid/send-backward.svg

<svg xmlns="http://www.w3.org/2000/svg" viewBox="0 0 512 512"><!-- Font Awesome Pro 6.0.0-alpha2 by @fontawesome - https://fontawesome.com License - https://fontawesome.com/license (Commercial License) --><path d="M352 128V64C352 28.652 323.346 0 288 0H64C28.654 0 0 28.652 0 64V288C0 323.346 28.654 352 64 352H128V224C128 171.064 171.066 128 224 128H352ZM448 160H224C188.654 160 160 188.654 160 224V448C160 483.346 188.654 512 224 512H448C483.346 512 512 483.346 512 448V224C512 188.652 483.346 160 448 160ZM448 448H224V224H448V448Z"/></svg>

<svg xmlns="http://www.w3.org/2000/svg" viewBox="0 0 512 512"><!--! Font Awesome Pro 6.4.0 by @fontawesome - https://fontawesome.com License - https://fontawesome.com/license (Commercial License) Copyright 2023 Fonticons, Inc. --><path d="M64 0C28.7 0 0 28.7 0 64V288c0 35.3 28.7 64 64 64h64V224c0-53 43-96 96-96H352V64c0-35.3-28.7-64-64-64H64zM224 224H448V448H224V224zm-64 0V448c0 35.3 28.7 64 64 64H448c35.3 0 64-28.7 64-64V224c0-35.3-28.7-64-64-64H224c-35.3 0-64 28.7-64 64z"/></svg>
